icons/ss.svg

<?xml version="1.0" ?>
<svg xmlns="http://www.w3.org/2000/svg" xmlns:ev="http://www.w3.org/2001/xml-events" xmlns:xlink="http://www.w3.org/1999/xlink" baseProfile="full" height="446px" version="1.1" viewBox="-1026.3491171006071 554.8808045810538 12296.307396308795 9130.238390837892" width="600px">
	<defs/>
	<path d="M 7354.0,8899.0 C 7348.0,8886.0 7348.0,8850.0 7353.0,8804.0 C 7358.0,8764.0 7359.0,8714.0 7355.0,8694.0 L 7349.0,8657.0 L 7089.0,8664.0 C 6947.0,8668.0 6830.0,8670.0 6830.0,8667.0 C 6830.0,8665.0 6884.0,8614.0 6950.0,8554.0 L 7070.0,8446.0 L 7070.0,8211.0 L 7070.0,7976.0 L 7104.0,7940.0 L 7139.0,7905.0 L 6978.0,7760.0 C 6890.0,7680.0 6793.0,7600.0 6763.0,7581.0 C 6711.0,7549.0 6704.0,7540.0 6661.0,7449.0 C 6620.0,7361.0 6591.0,7322.0 6380.0,7071.0 L 6145.0,6790.0 L 5991.0,6790.0 C 5874.0,6790.0 5824.0,6786.0 5783.0,6773.0 L 5730.0,6756.0 L 5687.0,6796.0 C 5664.0,6817.0 5620.0,6858.0 5590.0,6887.0 C 5521.0,6952.0 5047.0,7250.0 5012.0,7250.0 C 5007.0,7250.0 4928.0,7209.0 4837.0,7159.0 L 4670.0,7068.0 L 4669.0,6992.0 C 4669.0,6905.0 4657.0,6823.0 4644.0,6810.0 C 4639.0,6805.0 4563.0,6796.0 4475.0,6789.0 C 4344.0,6779.0 4306.0,6772.0 4268.0,6753.0 L 4220.0,6730.0 L 4220.0,6921.0 L 4220.0,7113.0 L 3738.0,7106.0 C 3473.0,7102.0 3254.0,7097.0 3252.0,7095.0 C 3249.0,7093.0 3245.0,7013.0 3242.0,6918.0 C 3238.0,6753.0 3238.0,6742.0 3259.0,6701.0 C 3271.0,6678.0 3279.0,6656.0 3276.0,6653.0 C 3273.0,6650.0 3119.0,6652.0 2933.0,6657.0 L 2595.0,6666.0 L 2540.0,6639.0 C 2479.0,6608.0 2342.0,6560.0 2295.0,6553.0 C 2267.0,6549.0 2087.0,6586.0 2029.0,6609.0 C 1994.0,6622.0 1946.0,6710.0 1914.0,6819.0 C 1893.0,6892.0 1881.0,6913.0 1820.0,6985.0 C 1782.0,7030.0 1726.0,7089.0 1696.0,7115.0 L 1640.0,7162.0 L 1647.0,7249.0 C 1654.0,7352.0 1660.0,7346.0 1536.0,7356.0 C 1460.0,7362.0 1448.0,7360.0 1417.0,7341.0 C 1389.0,7324.0 1367.0,7320.0 1294.0,7320.0 C 1129.0,7320.0 953.0,7266.0 911.0,7202.0 C 889.0,7169.0 889.0,7165.0 904.0,7134.0 C 930.0,7078.0 904.0,7036.0 765.0,6911.0 L 645.0,6804.0 L 642.0,6674.0 L 638.0,6545.0 L 579.0,6497.0 C 522.0,6450.0 520.0,6447.0 520.0,6402.0 C 520.0,6371.0 513.0,6347.0 500.0,6330.0 C 477.0,6300.0 474.0,6218.0 491.0,6110.0 C 502.0,6044.0 502.0,6041.0 477.0,6009.0 C 455.0,5979.0 427.0,5966.0 261.0,5905.0 L 70.0,5836.0 L 64.0,5801.0 C 58.0,5773.0 61.0,5764.0 81.0,5749.0 C 108.0,5729.0 108.0,5731.0 32.0,5649.0 C 3.0,5618.0 -1.0,5608.0 5.0,5578.0 C 14.0,5533.0 15.0,5531.0 88.0,5480.0 L 150.0,5437.0 L 215.0,5446.0 C 275.0,5455.0 281.0,5454.0 302.0,5434.0 C 322.0,5415.0 347.0,5409.0 476.0,5394.0 L 628.0,5376.0 L 666.0,5287.0 C 698.0,5212.0 712.0,5191.0 753.0,5159.0 C 794.0,5126.0 804.0,5122.0 826.0,5130.0 C 840.0,5136.0 857.0,5140.0 863.0,5140.0 C 882.0,5140.0 917.0,5078.0 936.0,5014.0 C 945.0,4981.0 955.0,4950.0 957.0,4944.0 C 959.0,4937.0 945.0,4927.0 926.0,4920.0 L 890.0,4908.0 L 890.0,4846.0 L 890.0,4783.0 L 926.0,4769.0 C 950.0,4760.0 989.0,4724.0 1044.0,4660.0 L 1125.0,4566.0 L 1311.0,4495.0 L 1496.0,4425.0 L 1651.0,4255.0 C 1776.0,4119.0 1817.0,4080.0 1858.0,4061.0 C 1887.0,4047.0 1910.0,4032.0 1910.0,4026.0 C 1910.0,4021.0 1896.0,4001.0 1879.0,3984.0 L 1848.0,3951.0 L 1855.0,3858.0 L 1862.0,3765.0 L 1961.0,3706.0 L 2061.0,3648.0 L 2030.0,3594.0 C 2014.0,3564.0 2000.0,3536.0 2000.0,3530.0 C 2000.0,3525.0 2014.0,3520.0 2031.0,3520.0 C 2054.0,3520.0 2075.0,3509.0 2106.0,3480.0 C 2148.0,3442.0 2152.0,3440.0 2217.0,3440.0 L 2285.0,3439.0 L 2440.0,3331.0 C 2577.0,3236.0 2599.0,3217.0 2631.0,3164.0 C 2666.0,3107.0 2667.0,3102.0 2673.0,2980.0 C 2676.0,2911.0 2681.0,2846.0 2685.0,2834.0 C 2688.0,2823.0 2732.0,2783.0 2781.0,2745.0 C 2871.0,2676.0 2871.0,2676.0 2846.0,2663.0 L 2821.0,2650.0 L 2849.0,2587.0 C 2876.0,2526.0 2877.0,2525.0 2939.0,2505.0 C 2984.0,2490.0 3008.0,2476.0 3023.0,2455.0 C 3034.0,2438.0 3053.0,2414.0 3066.0,2400.0 C 3079.0,2385.0 3091.0,2354.0 3095.0,2325.0 C 3099.0,2292.0 3110.0,2266.0 3128.0,2248.0 C 3152.0,2222.0 3160.0,2220.0 3231.0,2220.0 L 3308.0,2220.0 L 3331.0,2165.0 C 3353.0,2115.0 3358.0,2109.0 3382.0,2113.0 C 3405.0,2116.0 3411.0,2110.0 3431.0,2068.0 C 3455.0,2016.0 3460.0,2014.0 3537.0,2029.0 C 3577.0,2037.0 3581.0,2035.0 3603.0,2007.0 L 3626.0,1978.0 L 3736.0,2033.0 C 3831.0,2081.0 3855.0,2097.0 3897.0,2148.0 L 3947.0,2208.0 L 3990.0,2174.0 C 4035.0,2138.0 4043.0,2137.0 4130.0,2150.0 C 4185.0,2158.0 4185.0,2158.0 4288.0,2098.0 C 4380.0,2044.0 4392.0,2039.0 4408.0,2052.0 C 4549.0,2170.0 4546.0,2168.0 4565.0,2235.0 C 4582.0,2299.0 4583.0,2300.0 4616.0,2300.0 C 4649.0,2300.0 4704.0,2281.0 4812.0,2233.0 L 4868.0,2208.0 L 4875.0,2129.0 L 4882.0,2050.0 L 4935.0,2013.0 C 4969.0,1989.0 4986.0,1971.0 4983.0,1960.0 C 4980.0,1950.0 5008.0,1924.0 5069.0,1880.0 C 5156.0,1818.0 5161.0,1812.0 5180.0,1754.0 L 5201.0,1693.0 L 5352.0,1649.0 C 5470.0,1615.0 5504.0,1601.0 5511.0,1585.0 C 5515.0,1574.0 5522.0,1525.0 5525.0,1476.0 L 5532.0,1387.0 L 5609.0,1394.0 C 5671.0,1399.0 5688.0,1404.0 5702.0,1422.0 C 5711.0,1435.0 5720.0,1443.0 5722.0,1440.0 C 5725.0,1437.0 5744.0,1413.0 5765.0,1385.0 C 5787.0,1358.0 5807.0,1331.0 5811.0,1326.0 C 5815.0,1321.0 5835.0,1350.0 5855.0,1389.0 L 5891.0,1461.0 L 5974.0,1500.0 C 6020.0,1521.0 6080.0,1541.0 6108.0,1545.0 C 6155.0,1551.0 6168.0,1548.0 6288.0,1495.0 L 6417.0,1439.0 L 6483.0,1479.0 C 6519.0,1501.0 6566.0,1528.0 6588.0,1539.0 L 6629.0,1560.0 L 6684.0,1509.0 C 6715.0,1481.0 6740.0,1452.0 6740.0,1444.0 C 6740.0,1415.0 6910.0,1320.0 6962.0,1320.0 C 6966.0,1320.0 6970.0,1335.0 6970.0,1354.0 C 6970.0,1386.0 6977.0,1393.0 7063.0,1454.0 L 7155.0,1520.0 L 7286.0,1520.0 L 7417.0,1520.0 L 7554.0,1581.0 L 7690.0,1641.0 L 7762.0,1585.0 L 7834.0,1528.0 L 7990.0,1535.0 L 8145.0,1542.0 L 8515.0,1910.0 L 8885.0,2279.0 L 9370.0,2289.0 C 9637.0,2295.0 9942.0,2303.0 10048.0,2306.0 L 10241.0,2312.0 L 10218.0,2341.0 C 10105.0,2481.0 10112.0,2468.0 10095.0,2585.0 L 10080.0,2695.0 L 10102.0,2712.0 C 10115.0,2722.0 10129.0,2730.0 10134.0,2730.0 C 10139.0,2730.0 10140.0,2751.0 10136.0,2778.0 C 10133.0,2804.0 10134.0,2841.0 10140.0,2860.0 C 10149.0,2891.0 10147.0,2897.0 10120.0,2925.0 C 10097.0,2949.0 10064.0,2964.0 9982.0,2989.0 L 9874.0,3022.0 L 9799.0,2981.0 L 9723.0,2940.0 L 9703.0,2963.0 C 9691.0,2975.0 9679.0,3006.0 9675.0,3032.0 C 9668.0,3079.0 9666.0,3081.0 9585.0,3132.0 L 9503.0,3183.0 L 9446.0,3297.0 C 9394.0,3402.0 9390.0,3415.0 9390.0,3480.0 C 9390.0,3545.0 9387.0,3555.0 9350.0,3615.0 C 9293.0,3705.0 9222.0,3867.0 9209.0,3936.0 C 9186.0,4063.0 9146.0,4105.0 9030.0,4130.0 L 8970.0,4143.0 L 8970.0,4193.0 C 8970.0,4238.0 8967.0,4245.0 8928.0,4281.0 C 8895.0,4310.0 8876.0,4319.0 8849.0,4320.0 C 8760.0,4321.0 8752.0,4326.0 8708.0,4415.0 C 8670.0,4491.0 8663.0,4499.0 8609.0,4529.0 C 8551.0,4561.0 8550.0,4562.0 8550.0,4606.0 C 8550.0,4648.0 8547.0,4654.0 8483.0,4712.0 C 8445.0,4746.0 8379.0,4810.0 8335.0,4855.0 C 8265.0,4928.0 8250.0,4938.0 8210.0,4944.0 C 8185.0,4948.0 8139.0,4960.0 8107.0,4972.0 C 8050.0,4992.0 8048.0,4992.0 7991.0,4975.0 L 7933.0,4958.0 L 7890.0,4986.0 C 7850.0,5013.0 7839.0,5015.0 7763.0,5013.0 C 7681.0,5012.0 7680.0,5012.0 7674.0,5038.0 C 7671.0,5053.0 7664.0,5080.0 7660.0,5098.0 C 7655.0,5118.0 7655.0,5142.0 7660.0,5156.0 C 7673.0,5190.0 7745.0,5282.0 7769.0,5298.0 C 7781.0,5305.0 7790.0,5321.0 7790.0,5335.0 C 7790.0,5349.0 7795.0,5369.0 7802.0,5379.0 C 7811.0,5393.0 7810.0,5402.0 7797.0,5421.0 C 7769.0,5461.0 7775.0,5511.0 7813.0,5547.0 C 7844.0,5577.0 7850.0,5579.0 7994.0,5594.0 C 8160.0,5611.0 8153.0,5612.0 8245.0,5546.0 L 8295.0,5509.0 L 8325.0,5545.0 C 8348.0,5572.0 8363.0,5580.0 8388.0,5580.0 C 8467.0,5580.0 8503.0,5598.0 8549.0,5662.0 L 8593.0,5722.0 L 8576.0,6043.0 C 8567.0,6220.0 8557.0,6385.0 8554.0,6410.0 L 8548.0,6455.0 L 8453.0,6500.0 C 8345.0,6551.0 8314.0,6584.0 8304.0,6660.0 C 8299.0,6703.0 8301.0,6709.0 8364.0,6795.0 C 8400.0,6844.0 8430.0,6887.0 8430.0,6890.0 C 8430.0,6902.0 8390.0,7123.0 8388.0,7125.0 C 8386.0,7127.0 8370.0,7132.0 8351.0,7137.0 C 8321.0,7145.0 8313.0,7154.0 8289.0,7210.0 C 8266.0,7264.0 8246.0,7290.0 8167.0,7365.0 C 8115.0,7415.0 8051.0,7483.0 8026.0,7518.0 L 7979.0,7580.0 L 7911.0,7580.0 C 7846.0,7580.0 7843.0,7581.0 7806.0,7619.0 L 7768.0,7658.0 L 7785.0,7688.0 C 7803.0,7717.0 7802.0,7724.0 7746.0,8021.0 C 7715.0,8188.0 7690.0,8337.0 7690.0,8352.0 C 7690.0,8367.0 7701.0,8419.0 7715.0,8466.0 C 7738.0,8545.0 7753.0,8634.0 7767.0,8780.0 C 7770.0,8810.0 7781.0,8847.0 7792.0,8862.0 L 7810.0,8889.0 L 7768.0,8894.0 C 7723.0,8900.0 7421.0,8920.0 7384.0,8920.0 C 7372.0,8920.0 7359.0,8911.0 7354.0,8899.0" fill="pink"/>
</svg>

<?xml version="1.0" standalone="no"?>
<!DOCTYPE svg PUBLIC "-//W3C//DTD SVG 20010904//EN"
 "http://www.w3.org/TR/2001/REC-SVG-20010904/DTD/svg10.dtd">
<svg version="1.0" xmlns="http://www.w3.org/2000/svg"
 width="1024.000000pt" height="1024.000000pt" viewBox="0 0 1024.000000 1024.000000"
 preserveAspectRatio="xMidYMid meet">
<metadata>
Created by potrace 1.10, written by Peter Selinger 2001-2011
</metadata>
<g transform="translate(0.000000,1024.000000) scale(0.100000,-0.100000)"
fill="#000000" stroke="none">
<path d="M7354 8899 c-6 -13 -6 -49 -1 -95 5 -40 6 -90 2 -110 l-6 -37 -260 7
c-142 4 -259 6 -259 3 0 -2 54 -53 120 -113 l120 -108 0 -235 0 -235 34 -36
35 -35 -161 -145 c-88 -80 -185 -160 -215 -179 -52 -32 -59 -41 -102 -132 -41
-88 -70 -127 -281 -378 l-235 -281 -154 0 c-117 0 -167 -4 -208 -17 l-53 -17
-43 40 c-23 21 -67 62 -97 91 -69 65 -543 363 -578 363 -5 0 -84 -41 -175 -91
l-167 -91 -1 -76 c0 -87 -12 -169 -25 -182 -5 -5 -81 -14 -169 -21 -131 -10
-169 -17 -207 -36 l-48 -23 0 191 0 192 -482 -7 c-265 -4 -484 -9 -486 -11 -3
-2 -7 -82 -10 -177 -4 -165 -4 -176 17 -217 12 -23 20 -45 17 -48 -3 -3 -157
-1 -343 4 l-338 9 -55 -27 c-61 -31 -198 -79 -245 -86 -28 -4 -208 33 -266 56
-35 13 -83 101 -115 210 -21 73 -33 94 -94 166 -38 45 -94 104 -124 130 l-56
47 7 87 c7 103 13 97 -111 107 -76 6 -88 4 -119 -15 -28 -17 -50 -21 -123 -21
-165 0 -341 -54 -383 -118 -22 -33 -22 -37 -7 -68 26 -56 0 -98 -139 -223
l-120 -107 -3 -130 -4 -129 -59 -48 c-57 -47 -59 -50 -59 -95 0 -31 -7 -55
-20 -72 -23 -30 -26 -112 -9 -220 11 -66 11 -69 -14 -101 -22 -30 -50 -43
-216 -104 l-191 -69 -6 -35 c-6 -28 -3 -37 17 -52 27 -20 27 -18 -49 -100 -29
-31 -33 -41 -27 -71 9 -45 10 -47 83 -98 l62 -43 65 9 c60 9 66 8 87 -12 20
-19 45 -25 174 -40 l152 -18 38 -89 c32 -75 46 -96 87 -128 41 -33 51 -37 73
-29 14 6 31 10 37 10 19 0 54 -62 73 -126 9 -33 19 -64 21 -70 2 -7 -12 -17
-31 -24 l-36 -12 0 -62 0 -63 36 -14 c24 -9 63 -45 118 -109 l81 -94 186 -71
185 -70 155 -170 c125 -136 166 -175 207 -194 29 -14 52 -29 52 -35 0 -5 -14
-25 -31 -42 l-31 -33 7 -93 7 -93 99 -59 100 -58 -31 -54 c-16 -30 -30 -58
-30 -64 0 -5 14 -10 31 -10 23 0 44 -11 75 -40 42 -38 46 -40 111 -40 l68 -1
155 -108 c137 -95 159 -114 191 -167 35 -57 36 -62 42 -184 3 -69 8 -134 12
-146 3 -11 47 -51 96 -89 90 -69 90 -69 65 -82 l-25 -13 28 -63 c27 -61 28
-62 90 -82 45 -15 69 -29 84 -50 11 -17 30 -41 43 -55 13 -15 25 -46 29 -75 4
-33 15 -59 33 -77 24 -26 32 -28 103 -28 l77 0 23 -55 c22 -50 27 -56 51 -52
23 3 29 -3 49 -45 24 -52 29 -54 106 -39 40 8 44 6 66 -22 l23 -29 110 55 c95
48 119 64 161 115 l50 60 43 -34 c45 -36 53 -37 140 -24 55 8 55 8 158 -52 92
-54 104 -59 120 -46 141 118 138 116 157 183 17 64 18 65 51 65 33 0 88 -19
196 -67 l56 -25 7 -79 7 -79 53 -37 c34 -24 51 -42 48 -53 -3 -10 25 -36 86
-80 87 -62 92 -68 111 -126 l21 -61 151 -44 c118 -34 152 -48 159 -64 4 -11
11 -60 14 -109 l7 -89 77 7 c62 5 79 10 93 28 9 13 18 21 20 18 3 -3 22 -27
43 -55 22 -27 42 -54 46 -59 4 -5 24 24 44 63 l36 72 83 39 c46 21 106 41 134
45 47 6 60 3 180 -50 l129 -56 66 40 c36 22 83 49 105 60 l41 21 55 -51 c31
-28 56 -57 56 -65 0 -29 170 -124 222 -124 4 0 8 15 8 34 0 32 7 39 93 100
l92 66 131 0 131 0 137 61 136 60 72 -56 72 -57 156 7 155 7 370 368 370 369
485 10 c267 6 572 14 678 17 l193 6 -23 29 c-113 140 -106 127 -123 244 l-15
110 22 17 c13 10 27 18 32 18 5 0 6 21 2 48 -3 26 -2 63 4 82 9 31 7 37 -20
65 -23 24 -56 39 -138 64 l-108 33 -75 -41 -76 -41 -20 23 c-12 12 -24 43 -28
69 -7 47 -9 49 -90 100 l-82 51 -57 114 c-52 105 -56 118 -56 183 0 65 -3 75
-40 135 -57 90 -128 252 -141 321 -23 127 -63 169 -179 194 l-60 13 0 50 c0
45 -3 52 -42 88 -33 29 -52 38 -79 39 -89 1 -97 6 -141 95 -38 76 -45 84 -99
114 -58 32 -59 33 -59 77 0 42 -3 48 -67 106 -38 34 -104 98 -148 143 -70 73
-85 83 -125 89 -25 4 -71 16 -103 28 -57 20 -59 20 -116 3 l-58 -17 -43 28
c-40 27 -51 29 -127 27 -82 -1 -83 -1 -89 25 -3 15 -10 42 -14 60 -5 20 -5 44
0 58 13 34 85 126 109 142 12 7 21 23 21 37 0 14 5 34 12 44 9 14 8 23 -5 42
-28 40 -22 90 16 126 31 30 37 32 181 47 166 17 159 18 251 -48 l50 -37 30 36
c23 27 38 35 63 35 79 0 115 18 161 82 l44 60 -17 321 c-9 177 -19 342 -22
367 l-6 45 -95 45 c-108 51 -139 84 -149 160 -5 43 -3 49 60 135 36 49 66 92
66 95 0 12 -40 233 -42 235 -2 2 -18 7 -37 12 -30 8 -38 17 -62 73 -23 54 -43
80 -122 155 -52 50 -116 118 -141 153 l-47 62 -68 0 c-65 0 -68 1 -105 39
l-38 39 17 30 c18 29 17 36 -39 333 -31 167 -56 316 -56 331 0 15 11 67 25
114 23 79 38 168 52 314 3 30 14 67 25 82 l18 27 -42 5 c-45 6 -347 26 -384
26 -12 0 -25 -9 -30 -21z"/>
</g>
</svg>
